<?xml version="1.0" encoding="UTF-8"?>
<map version="1.10" tiledversion="1.12.2" orientation="orthogonal" renderorder="right-down" width="30" height="30" tilewidth="32" tileheight="32" infinite="0" nextlayerid="3" nextobjectid="1">
 <editorsettings>
  <export target="world.json" format="json"/>
 </editorsettings>
 <tileset firstgid="1" source="nature_tilemap.tsx"/>
 <layer id="1" name="Tile Layer 1" width="30" height="30">
  <properties>
   <property name="has_collision" type="bool" value="true"/>
   <property name="texture_name" value="tilemaps\nature_tilemap.png"/>
  </properties>
  <data encoding="csv">
114,114,147,117,117,148,114,114,114,114,114,114,114,114,114,114,114,114,114,114,114,114,114,114,114,114,114,114,114,114,
114,114,177,208,208,178,114,114,114,114,114,114,114,114,114,114,114,114,114,114,114,114,114,114,114,114,114,114,114,114,
114,114,177,208,208,178,114,114,114,114,114,114,114,114,114,114,114,114,114,114,114,114,114,114,114,114,114,114,114,114,
114,114,177,208,208,178,114,114,114,114,114,114,114,114,114,114,114,114,114,114,114,114,114,114,114,114,114,114,114,114,
114,114,177,208,208,178,114,114,114,114,114,114,114,114,114,114,114,114,144,145,114,114,114,114,114,114,114,114,114,114,
114,114,177,208,208,178,114,114,144,145,114,114,114,114,114,114,114,114,174,175,114,114,114,114,114,114,114,114,114,114,
114,114,177,208,208,178,114,114,174,175,114,114,114,114,114,114,114,114,114,114,114,114,114,114,114,114,114,854,854,854,
114,114,177,208,208,178,114,114,114,114,114,114,114,114,114,114,114,114,114,114,114,114,114,114,114,854,854,886,857,857,
114,114,114,177,208,208,178,114,114,114,114,114,114,114,114,114,114,114,114,114,114,114,854,854,854,855,855,890,79,79,
114,114,114,114,177,208,208,178,114,114,114,114,114,114,114,114,114,114,114,854,854,854,886,857,857,857,857,890,79,114,
114,114,114,114,114,114,114,114,114,114,114,114,114,114,114,114,114,854,854,886,857,857,890,79,79,79,79,79,79,114,
114,114,114,114,114,114,114,114,114,114,114,114,114,114,114,114,855,886,857,890,79,79,79,114,114,114,114,114,114,114,
114,114,114,114,114,114,114,114,114,114,114,114,114,114,114,855,855,884,79,79,79,114,114,114,114,114,114,114,114,114,
114,114,114,114,114,114,114,114,114,114,114,114,114,854,854,854,886,890,79,114,114,114,114,114,114,114,114,114,114,114,
114,114,144,145,114,114,114,114,114,114,114,114,854,886,857,857,890,79,79,114,114,114,144,145,114,114,114,114,114,114,
114,114,174,175,114,114,114,114,114,114,114,114,854,799,79,79,79,114,114,114,114,114,174,175,114,114,114,114,114,114,
114,114,114,114,114,114,114,114,114,114,114,854,886,890,79,174,175,114,114,114,114,114,114,114,114,114,114,114,114,114,
114,114,114,114,114,114,114,114,114,114,114,854,799,79,79,114,114,114,114,114,114,114,114,114,114,114,114,114,114,114,
114,114,114,114,114,114,114,114,114,114,114,854,800,79,114,114,114,114,114,114,114,114,114,114,114,114,114,114,114,114,
114,114,114,114,114,114,114,114,114,114,114,854,800,79,114,114,114,114,114,114,114,114,114,114,114,114,114,114,114,114,
114,114,114,115,115,115,115,115,114,114,114,854,800,79,114,114,114,114,114,114,114,114,114,114,114,114,114,114,114,114,
114,114,114,115,115,115,115,114,114,114,114,854,800,79,114,114,114,114,114,114,114,114,114,114,114,114,114,114,114,114,
114,114,114,115,115,115,115,114,114,114,854,886,890,79,114,114,313,376,313,313,313,643,313,313,313,313,643,313,313,376,
115,115,115,115,115,115,115,114,114,114,854,799,858,79,114,114,313,313,643,313,313,313,313,376,313,313,643,313,313,643,
115,115,114,144,145,115,115,115,114,114,854,799,858,79,114,114,673,673,673,673,673,673,673,673,673,673,673,673,673,673,
114,115,115,174,175,115,115,114,114,854,828,799,858,79,114,114,114,114,114,114,114,144,145,114,114,114,114,114,114,114,
114,114,115,115,115,115,115,115,115,854,799,890,858,79,114,114,114,114,114,114,114,174,175,114,114,114,114,114,114,114,
114,115,115,115,115,115,115,115,854,886,890,858,114,79,114,114,114,114,114,114,114,114,114,114,114,114,114,114,114,114,
114,114,114,115,115,115,115,854,854,799,858,858,114,114,114,114,114,114,114,114,114,114,114,114,114,114,114,114,114,114,
114,114,114,114,114,115,115,854,885,890,858,858,114,114,114,114,114,114,114,114,114,114,114,114,114,114,114,114,114,114
</data>
 </layer>
 <layer id="2" name="Tile Layer 2" width="30" height="30">
  <data encoding="csv">
0,0,0,0,0,0,0,407,408,409,410,0,0,0,0,0,0,437,438,439,440,0,0,0,0,0,0,0,0,0,
0,0,0,0,0,0,0,437,438,439,440,0,0,0,0,0,466,467,468,469,470,0,0,0,0,0,0,0,0,0,
0,0,0,465,0,0,466,467,468,469,470,0,0,0,0,0,0,497,498,499,500,0,0,0,0,0,0,0,0,0,
0,0,0,0,0,0,0,497,498,499,500,0,0,0,0,0,0,527,528,529,530,0,0,0,0,0,0,0,0,0,
0,0,0,138,0,0,0,527,528,529,530,0,0,0,0,0,0,557,558,559,560,103,0,0,0,0,0,0,0,0,
0,0,0,0,465,0,0,557,558,559,560,0,0,0,103,0,0,587,588,589,590,0,0,0,0,0,0,0,0,0,
0,0,0,465,138,0,465,587,588,589,590,0,0,0,0,0,103,0,465,0,0,0,0,0,0,0,0,528,0,0,
0,0,0,0,0,0,0,0,0,0,0,0,0,0,0,0,0,0,0,0,0,0,0,0,0,528,0,0,0,0,
0,0,0,0,0,0,0,138,0,0,0,0,0,0,0,0,0,0,0,0,0,0,528,0,0,0,0,0,0,0,
0,407,408,409,410,601,601,601,165,0,0,0,0,0,0,0,0,0,0,0,0,407,408,409,410,0,0,0,528,0,
0,437,438,439,440,601,601,601,17,0,0,0,0,0,407,408,409,410,0,0,0,437,438,439,440,0,0,0,0,0,
466,467,468,469,470,601,601,601,0,0,0,103,0,0,437,438,439,440,0,465,466,467,468,469,470,0,0,0,0,0,
0,497,498,499,500,601,601,601,0,0,0,0,0,466,467,468,469,470,527,0,0,497,498,74,500,0,0,0,0,0,
0,527,528,529,530,0,0,0,0,0,0,0,0,138,497,498,499,500,527,0,0,527,528,529,530,0,0,0,0,0,
0,557,558,559,560,0,0,0,0,0,0,0,0,0,527,528,529,530,0,0,0,557,558,559,560,0,0,0,0,0,
0,587,588,589,590,0,0,103,0,0,0,0,0,0,465,558,559,560,0,0,0,587,588,589,590,0,0,0,0,0,
0,0,0,0,0,0,0,0,0,0,0,0,0,0,587,588,589,590,74,0,0,0,0,0,0,0,0,0,0,0,
0,0,0,0,0,0,0,0,0,0,0,0,0,0,0,0,0,0,0,0,0,0,0,0,0,0,0,0,0,0,
0,0,0,0,0,74,0,0,0,0,0,527,0,0,0,0,0,0,0,0,0,0,0,0,0,0,0,0,0,0,
0,0,407,408,409,410,0,0,0,0,0,0,0,527,74,0,0,0,0,0,0,0,0,0,0,0,0,0,0,0,
0,0,437,438,439,440,0,0,0,0,0,0,0,0,0,0,0,0,0,0,407,408,409,410,0,0,0,0,0,0,
0,466,467,468,469,470,0,0,0,0,0,0,0,527,0,0,0,0,0,0,437,438,439,440,0,0,0,0,0,0,
0,0,497,498,499,500,0,0,0,0,0,0,0,0,0,0,0,0,0,466,467,468,469,470,0,0,0,0,0,0,
0,0,527,528,529,530,0,0,0,0,0,0,0,0,0,0,0,0,0,0,497,498,499,500,0,0,0,0,0,0,
0,0,557,558,559,560,0,0,0,528,0,0,0,0,0,0,0,0,0,0,527,528,529,530,0,0,0,0,0,0,
0,0,587,588,589,590,0,0,0,0,0,0,527,0,0,0,0,0,0,0,557,558,559,560,0,0,0,0,0,0,
0,0,0,0,0,0,0,0,0,0,0,0,0,0,0,0,0,0,0,0,587,588,589,590,0,0,0,0,0,0,
0,0,0,0,0,0,144,381,79,79,382,382,79,837,0,0,0,0,0,0,0,0,0,0,0,0,0,0,0,0,
0,0,0,0,0,0,142,411,412,412,412,412,412,0,0,0,0,0,0,0,0,0,0,0,0,0,0,0,0,0,
0,0,0,0,0,144,142,441,442,442,442,442,442,0,0,0,0,0,0,0,0,0,0,0,0,0,0,0,0,0
</data>
 </layer>
</map>
